packages/core/src/svgs/tokens/branded/LIT.svg

<svg width="24" height="24" viewBox="0 0 24 24" fill="none" xmlns="http://www.w3.org/2000/svg">
<path d="M22 12.4156L20.6666 11.2212L19.0794 13.0589C18.8694 13.2327 18.2372 13.5489 17.3866 13.4267C16.5361 13.3044 16.0739 13.58 15.9489 13.7327L10.6851 19.6528L12 20.8889C13.8523 18.8111 17.6712 14.5139 18.0905 14.0849C18.615 13.5489 19.0794 13.8555 19.8283 13.9473C20.4272 14.0211 20.7567 13.835 20.8467 13.7327L22 12.4156Z" fill="url(#paint0_linear_364_12266)"/>
<path d="M9.08872 18.1288L7.7854 16.9344L11.7849 12.4462C12.2492 11.9256 12.8932 12.3084 13.612 12.3084C14.187 12.3084 14.6704 12.0122 14.8398 11.8639L17.836 8.54056L19.1242 9.75052C18.3266 10.6503 17.5277 11.5487 16.7276 12.4462C16.2331 12.9977 15.6193 12.7527 14.9753 12.5994C14.4598 12.4773 13.9615 12.7938 13.777 12.9673L9.08872 18.1288Z" fill="url(#paint1_linear_364_12266)"/>
<path d="M12.0145 3.11111L6.23109 9.58612C5.86554 9.99614 4.86777 9.97047 4.25666 9.84214C3.76778 9.73999 3.35277 10.0455 3.20667 10.2111L2 11.5411L3.33222 12.7432C3.87555 12.086 5.0561 10.7016 5.43221 10.4194C5.90221 10.0667 6.62331 10.2111 7.06221 10.4194C7.41331 10.5861 7.86665 10.35 8.04943 10.2111L13.3622 4.34499L12.0145 3.11111Z" fill="url(#paint2_linear_364_12266)"/>
<path d="M6.21888 15.4722L4.91333 14.2416C5.62499 13.4366 7.17833 11.6854 7.55332 11.2899C8.02221 10.7949 8.86831 11.1033 9.4889 11.0899C9.98551 11.0794 10.44 10.7622 10.6055 10.6055L14.9433 5.83218L16.2244 7.08662C15.1139 8.2655 12.8127 10.7366 12.4905 11.1855C12.1683 11.6349 11.6849 11.6599 11.4839 11.6161C11.1903 11.5498 10.8973 11.4814 10.605 11.4105C10.1072 11.2905 9.65327 11.61 9.48825 11.7843L6.21888 15.4722Z" fill="url(#paint3_linear_364_12266)"/>
<defs>
<linearGradient id="paint0_linear_364_12266" x1="19.9437" y1="5.82958" x2="5.86458" y2="19.9565" gradientUnits="userSpaceOnUse">
<stop offset="0.205" stop-color="#00C967"/>
<stop offset="0.325" stop-color="#15E882"/>
<stop offset="1" stop-color="#16EA84"/>
</linearGradient>
<linearGradient id="paint1_linear_364_12266" x1="18.6504" y1="7.59289" x2="5.01737" y2="20.5192" gradientUnits="userSpaceOnUse">
<stop offset="0.232" stop-color="#00C969"/>
<stop offset="0.416" stop-color="#09F183"/>
</linearGradient>
<linearGradient id="paint2_linear_364_12266" x1="15.7638" y1="15.036" x2="8.63097" y2="22.2934" gradientUnits="userSpaceOnUse">
<stop stop-color="#1BC775"/>
<stop offset="0.715" stop-color="#0DD976"/>
</linearGradient>
<linearGradient id="paint3_linear_364_12266" x1="14.2989" y1="8.24047" x2="6.76008" y2="15.4921" gradientUnits="userSpaceOnUse">
<stop offset="0.401" stop-color="#1BD27F"/>
<stop offset="0.609" stop-color="#2FE18B"/>
</linearGradient>
</defs>
</svg>

<svg xmlns="http://www.w3.org/2000/svg" width="24" height="24" fill="none" viewBox="0 0 24 24">
    <path fill="url(#LIT__a)" d="m22 12.416-1.333-1.195-1.588 1.838c-.21.174-.842.49-1.692.368-.85-.123-1.313.153-1.438.306l-5.264 5.92L12 20.889c1.852-2.078 5.671-6.375 6.09-6.804.525-.536.99-.23 1.738-.138.6.074.929-.112 1.019-.214z"/>
    <path fill="url(#LIT__b)" d="m9.089 18.129-1.304-1.195 4-4.488c.464-.52 1.108-.138 1.827-.138a2.03 2.03 0 0 0 1.228-.444l2.996-3.323 1.288 1.21q-1.196 1.35-2.396 2.695c-.495.552-1.109.307-1.753.153-.515-.122-1.014.195-1.198.368z"/>
    <path fill="url(#LIT__c)" d="M12.015 3.111 6.23 9.586c-.365.41-1.363.384-1.974.256-.49-.102-.904.204-1.05.37L2 11.541l1.332 1.201c.544-.657 1.724-2.041 2.1-2.324.47-.352 1.191-.208 1.63 0 .351.167.805-.069.987-.208l5.313-5.866z"/>
    <path fill="url(#LIT__d)" d="m6.219 15.472-1.306-1.23c.712-.805 2.265-2.557 2.64-2.952.47-.495 1.315-.187 1.936-.2.497-.01.951-.328 1.116-.485l4.338-4.773 1.281 1.255c-1.11 1.178-3.411 3.65-3.733 4.099s-.806.474-1.007.43a57 57 0 0 1-.879-.205c-.498-.12-.952.199-1.117.373z"/>
    <defs>
        <linearGradient id="LIT__a" x1="19.944" x2="5.865" y1="5.83" y2="19.956" gradientUnits="userSpaceOnUse">
            <stop offset=".205" stop-color="#00C967"/>
            <stop offset=".325" stop-color="#15E882"/>
            <stop offset="1" stop-color="#16EA84"/>
        </linearGradient>
        <linearGradient id="LIT__b" x1="18.65" x2="5.017" y1="7.593" y2="20.519" gradientUnits="userSpaceOnUse">
            <stop offset=".232" stop-color="#00C969"/>
            <stop offset=".416" stop-color="#09F183"/>
        </linearGradient>
        <linearGradient id="LIT__c" x1="15.764" x2="8.631" y1="15.036" y2="22.293" gradientUnits="userSpaceOnUse">
            <stop stop-color="#1BC775"/>
            <stop offset=".715" stop-color="#0DD976"/>
        </linearGradient>
        <linearGradient id="LIT__d" x1="14.299" x2="6.76" y1="8.24" y2="15.492" gradientUnits="userSpaceOnUse">
            <stop offset=".401" stop-color="#1BD27F"/>
            <stop offset=".609" stop-color="#2FE18B"/>
        </linearGradient>
    </defs>
</svg>
